svg/weather/moonlight_fill.svg

<?xml version="1.0" encoding="UTF-8"?>
<svg width="24px" height="24px" viewBox="0 0 24 24" version="1.1" xmlns="http://www.w3.org/2000/svg" xmlns:xlink="http://www.w3.org/1999/xlink">
    <title>moonlight_fill</title>
    <g id="Icon" stroke="none" stroke-width="1" fill="none" fill-rule="evenodd">
        <g id="Weather" transform="translate(-481.000000, -240.000000)" fill-rule="nonzero">
            <g id="moonlight_fill" transform="translate(481.000000, 240.000000)">
                <path d="M24,0 L24,24 L0,24 L0,0 L24,0 Z M12.5935,23.2578 L12.5819,23.2595 L12.5109,23.295 L12.4919,23.2987 L12.4767,23.295 L12.4057,23.2595 C12.3958,23.2564 12.387,23.259 12.3821,23.2649 L12.378,23.2758 L12.3609,23.7031 L12.3659,23.7235 L12.3769,23.7357 L12.4805,23.8097 L12.4953,23.8136 L12.5071,23.8097 L12.6107,23.7357 L12.6233,23.7197 L12.6267,23.7031 L12.6096,23.2758 C12.6076,23.2657 12.601,23.2593 12.5935,23.2578 Z M12.8584,23.1453 L12.8445,23.1473 L12.6598,23.2397 L12.6499,23.2499 L12.6472,23.2611 L12.6651,23.6906 L12.6699,23.7034 L12.6784,23.7105 L12.8793,23.8032 C12.8914,23.8069 12.9022,23.803 12.9078,23.7952 L12.9118,23.7812 L12.8777,23.1665 C12.8753,23.1546 12.8674,23.147 12.8584,23.1453 Z M12.143,23.1473 C12.1332,23.1424 12.1222,23.1453 12.1156,23.1526 L12.1099,23.1665 L12.0758,23.7812 C12.0751,23.7927 12.0828,23.8019 12.0926,23.8046 L12.1083,23.8032 L12.3092,23.7105 L12.3186,23.7024 L12.3225,23.6906 L12.3404,23.2611 L12.3372,23.2485 L12.3278,23.2397 L12.143,23.1473 Z" id="MingCute"></path>
                <path d="M12,2 C12.51285,2 12.9355092,2.38604429 12.9932725,2.88337975 L13,3.01 C13,3.56228 12.5523,4.01 12,4.01 C11.48715,4.01 11.0644908,3.62395571 11.0067275,3.12662025 L11,3 C11,2.44772 11.4477,2 12,2 Z M17.6498,17.6498 C18.0102615,17.2893385 18.5775207,17.2616107 18.9697973,17.5666166 L19.0711,17.6569 C19.4616,18.0474 19.4616,18.6806 19.0711,19.0711 C18.7106385,19.4315615 18.1433793,19.4592893 17.7511027,19.1542834 L17.6569,19.0711 C17.2593,18.6735 17.2593,18.0404 17.6498,17.6498 Z M4.93595,17.6498 C5.32648,17.2593 5.95964,17.2593 6.35017,17.6498 C6.71065,18.0103538 6.73837923,18.5775349 6.43334983,18.9697989 L6.35016,19.064 C5.95256,19.4616 5.3194,19.4616 4.92888,19.0711 C4.56839077,18.7106385 4.54066935,18.1433793 4.84569214,17.7511027 L4.93595,17.6498 Z M10.7527,5.11108 C11.1532,5.03898 11.5574,5.21673 11.7749,5.5606 C11.9925,5.90446 11.98,6.34586 11.7433,6.67687 C11.2752,7.33158 10.99999,8.13221 10.99999,9.00009 C10.99999,11.2092 12.7909,13.0001 14.99999,13.0001 C15.8679,13.0001 16.6685,12.7248 17.3232,12.2567 C17.6542,12.0201 18.0956,12.0076 18.4395,12.2251 C18.7834,12.4427 18.9611,12.8469 18.889,13.2474 C18.3002,16.5184 15.4409,19.0001 11.99999,19.0001 C8.134,19.0001 4.99999,15.8661 4.99999,12.0001 C4.99999,8.55918 7.48171,5.69996 10.7527,5.11108 Z M17.3848,9.16729 C17.9092,8.99406 18.4748,9.27876 18.648,9.80317 C18.6966,9.95035 18.7405,10.0997 18.7794,10.251 C18.9171,10.7858 18.5951,11.331 18.0602,11.4687 C17.5254,11.6063 16.9802,11.2843 16.8425,10.7495 C16.8148,10.6417 16.7835,10.5353 16.7489,10.4305 C16.5757,9.90606 16.8604,9.34051 17.3848,9.16729 Z M15.1986,6.82574 C15.5624,6.41024 16.1942,6.36835 16.6097,6.73219 C16.8434,6.93684 17.0634,7.15681 17.268,7.39053 C17.6319,7.80603 17.59,8.43781 17.1745,8.80164 C16.759,9.16547 16.1272,9.12358 15.7633,8.70808 C15.6169,8.54079 15.4594,8.38334 15.2921,8.23686 C14.8766,7.87302 14.8347,7.24124 15.1986,6.82574 Z M12.5316,5.93995 C12.6692,5.4051 13.2144,5.08311 13.7492,5.22077 C13.9006,5.25971 14.0499,5.30358 14.1971,5.3522 C14.7215,5.52543 15.0062,6.09099 14.8329,6.6154 C14.6597,7.13981 14.0942,7.4245 13.5697,7.25127 C13.4649,7.21664 13.3585,7.18539 13.2507,7.15764 C12.7159,7.01998 12.3939,6.4748 12.5316,5.93995 Z M4.92887,4.92912 C5.28935,4.56864 5.85658503,4.54091077 6.2488735,4.84593231 L6.34308,4.92912 C6.74068,5.32672 6.74068,5.95988 6.35015,6.35041 C5.98967,6.71089 5.42244349,6.73861923 5.03014847,6.43359769 L4.93594,6.35041 C4.53835,5.95281 4.53835,5.31965 4.92887,4.92912 Z M17.6569,4.92912 C18.0474,4.5386 18.6806,4.5386 19.0711,4.92913 C19.4315615,5.28961 19.4592893,5.85684503 19.1542834,6.2491335 L19.064,6.35041 C18.6735,6.74093 18.0403,6.74093 17.6498,6.35041 C17.2893385,5.98992077 17.2616107,5.42268503 17.5666166,5.03039651 L17.6569,4.92912 Z M22,12 C22,12.51285 21.613973,12.9355092 21.1166239,12.9932725 L20.99,13 C20.4377,13 19.99,12.5523 19.99,12 C19.99,11.48715 20.376027,11.0644908 20.8733761,11.0067275 L21,11 C21.5523,11 22,11.4477 22,12 Z M12,19.9902 C12.51285,19.9902 12.9355092,20.3763133 12.9932725,20.8735945 L13,21.0002 C13,21.5525 12.5523,22.0002 12,22.0002 C11.48715,22.0002 11.0644908,21.614173 11.0067275,21.1168239 L11,20.9902 C11,20.438 11.4477,19.9902 12,19.9902 Z M4.01,12 C4.01,12.51285 3.62395571,12.9355092 3.12662025,12.9932725 L3,13 C2.44771,13 2,12.5523 2,12 C2,11.48715 2.38604429,11.0644908 2.88337975,11.0067275 L3.01,11 C3.56229,11 4.01,11.4477 4.01,12 Z" id="形状" fill="#09244B"></path>
            </g>
        </g>
    </g>
</svg>

<svg xmlns="http://www.w3.org/2000/svg" width="24" height="24"><g fill="none" fill-rule="nonzero"><path d="M24 0v24H0V0h24ZM12.594 23.258l-.012.002-.071.035-.02.004-.014-.004-.071-.036c-.01-.003-.019 0-.024.006l-.004.01-.017.428.005.02.01.013.104.074.015.004.012-.004.104-.074.012-.016.004-.017-.017-.427c-.002-.01-.009-.017-.016-.018Zm.264-.113-.014.002-.184.093-.01.01-.003.011.018.43.005.012.008.008.201.092c.012.004.023 0 .029-.008l.004-.014-.034-.614c-.003-.012-.01-.02-.02-.022Zm-.715.002a.023.023 0 0 0-.027.006l-.006.014-.034.614c0 .012.007.02.017.024l.015-.002.201-.093.01-.008.003-.011.018-.43-.003-.012-.01-.01-.184-.092Z"/><path fill="#09244B" d="M12 2a1 1 0 0 1 .993.883L13 3.01a1 1 0 0 1-1.993.117L11 3a1 1 0 0 1 1-1Zm5.65 15.65a1 1 0 0 1 1.32-.083l.101.09a1 1 0 0 1-1.32 1.497l-.094-.083a1.002 1.002 0 0 1-.007-1.421Zm-12.714 0a1 1 0 0 1 1.497 1.32l-.083.094a1 1 0 0 1-1.504-1.313l.09-.101ZM10.753 5.11a1 1 0 0 1 .99 1.566 4 4 0 0 0 5.58 5.58 1 1 0 0 1 1.566.99A7.002 7.002 0 0 1 5 12c0-3.44 2.482-6.3 5.753-6.889Zm6.632 4.056a1 1 0 0 1 1.263.636c.049.147.093.297.131.448a1 1 0 1 1-1.936.498 4.936 4.936 0 0 0-.094-.319 1 1 0 0 1 .636-1.263Zm-2.186-2.341a1 1 0 0 1 1.41-.094c.234.205.454.425.659.659a1 1 0 1 1-1.505 1.317 5.024 5.024 0 0 0-.47-.471 1 1 0 0 1-.094-1.411Zm-2.667-.886a1 1 0 0 1 1.217-.72c.152.04.3.084.448.132a1 1 0 1 1-.627 1.9 4.95 4.95 0 0 0-.32-.094 1 1 0 0 1-.718-1.218ZM4.929 4.93a1 1 0 0 1 1.32-.084l.094.083A1 1 0 0 1 5.03 6.433l-.094-.083a1.002 1.002 0 0 1-.007-1.42Zm12.728 0a1 1 0 0 1 1.497 1.32l-.09.1a1 1 0 0 1-1.497-1.32l.09-.1ZM22 12a1 1 0 0 1-.883.993L20.99 13a1 1 0 0 1-.117-1.993L21 11a1 1 0 0 1 1 1Zm-10 7.99a1 1 0 0 1 .993.884L13 21a1 1 0 0 1-1.993.117L11 20.99a1 1 0 0 1 1-1ZM4.01 12a1 1 0 0 1-.883.993L3 13a1 1 0 0 1-.117-1.993L3.01 11a1 1 0 0 1 1 1Z"/></g></svg>
